austria/municipalities/41817.svg

<?xml version="1.0" encoding="UTF-8"?>
<!DOCTYPE svg PUBLIC "-//W3C//DTD SVG 1.1//EN" "http://www.w3.org/Graphics/SVG/1.1/DTD/svg11.dtd">
<svg xmlns="http://www.w3.org/2000/svg" version="1.1" width="166px" height="207px" style="shape-rendering:geometricPrecision; text-rendering:geometricPrecision; image-rendering:optimizeQuality; fill-rule:evenodd; clip-rule:evenodd" xmlns:xlink="http://www.w3.org/1999/xlink">
<g><path style="opacity:1" fill="#000000" d="M -0.5,-0.5 C 54.8333,-0.5 110.167,-0.5 165.5,-0.5C 165.5,44.1667 165.5,88.8333 165.5,133.5C 160.657,161.881 145.657,183.381 120.5,198C 112.336,201.554 104.002,204.388 95.5,206.5C 86.8333,206.5 78.1667,206.5 69.5,206.5C 29.593,196.928 6.25968,171.928 -0.5,131.5C -0.5,87.5 -0.5,43.5 -0.5,-0.5 Z"/></g>
<g><path style="opacity:1" fill="#00612a" d="M 3.5,3.5 C 56.1667,3.5 108.833,3.5 161.5,3.5C 161.667,47.8346 161.5,92.1679 161,136.5C 154.514,168.653 135.681,189.819 104.5,200C 60.5468,208.984 28.7135,193.484 9,153.5C 6.75358,147.67 5.08691,141.67 4,135.5C 3.50001,91.5013 3.33334,47.5013 3.5,3.5 Z"/></g>
<g><path style="opacity:1" fill="#000000" d="M 81.5,17.5 C 82.5832,17.5394 83.5832,17.8728 84.5,18.5C 94.0363,27.8691 103.37,37.3691 112.5,47C 112.355,47.772 112.022,48.4387 111.5,49C 106.511,49.4993 101.511,49.6659 96.5,49.5C 96.5,59.1667 96.5,68.8333 96.5,78.5C 106.167,78.5 115.833,78.5 125.5,78.5C 125.334,73.1563 125.501,67.8229 126,62.5C 126.414,62.0426 126.914,61.7093 127.5,61.5C 137.346,71.8461 147.346,82.0127 157.5,92C 147.833,101.667 138.167,111.333 128.5,121C 127.552,121.483 126.552,121.649 125.5,121.5C 125.5,116.167 125.5,110.833 125.5,105.5C 115.833,105.5 106.167,105.5 96.5,105.5C 96.5,115.167 96.5,124.833 96.5,134.5C 101.179,134.334 105.845,134.501 110.5,135C 112.158,135.725 112.658,136.892 112,138.5C 102.594,148.409 92.7607,157.742 82.5,166.5C 72.3527,156.853 62.3527,147.02 52.5,137C 52.6448,136.228 52.9781,135.561 53.5,135C 58.4889,134.501 63.4889,134.334 68.5,134.5C 68.5,124.833 68.5,115.167 68.5,105.5C 58.8333,105.5 49.1667,105.5 39.5,105.5C 39.5,110.833 39.5,116.167 39.5,121.5C 38.448,121.649 37.448,121.483 36.5,121C 27.6104,111.775 18.4437,102.942 9,94.5C 8.5,93.5 8,92.5 7.5,91.5C 17.8333,81.8333 27.8333,71.8333 37.5,61.5C 38.086,61.7093 38.586,62.0426 39,62.5C 39.4994,67.8229 39.666,73.1563 39.5,78.5C 49.1667,78.5 58.8333,78.5 68.5,78.5C 68.5,68.8333 68.5,59.1667 68.5,49.5C 63.4889,49.6659 58.4889,49.4993 53.5,49C 52.9781,48.4387 52.6448,47.772 52.5,47C 62.0121,36.9881 71.6788,27.1547 81.5,17.5 Z"/></g>
<g><path style="opacity:1" fill="#fea700" d="M 81.5,19.5 C 91.5794,28.0753 101.246,37.242 110.5,47C 105.177,47.4994 99.8437,47.666 94.5,47.5C 94.5,58.5 94.5,69.5 94.5,80.5C 105.5,80.5 116.5,80.5 127.5,80.5C 127.334,75.1563 127.501,69.8229 128,64.5C 136.833,74 146,83.1667 155.5,92C 146.027,100.806 136.86,109.973 128,119.5C 127.501,114.177 127.334,108.844 127.5,103.5C 116.5,103.5 105.5,103.5 94.5,103.5C 94.5,114.5 94.5,125.5 94.5,136.5C 99.8437,136.334 105.177,136.501 110.5,137C 101.319,146.348 91.9858,155.514 82.5,164.5C 73.0142,155.514 63.6808,146.348 54.5,137C 59.8229,136.501 65.1563,136.334 70.5,136.5C 70.5,125.5 70.5,114.5 70.5,103.5C 59.5,103.5 48.5,103.5 37.5,103.5C 37.666,108.844 37.4994,114.177 37,119.5C 28.1396,109.973 18.9729,100.806 9.5,92C 19,83.1667 28.1667,74 37,64.5C 37.4994,69.8229 37.666,75.1563 37.5,80.5C 48.5,80.5 59.5,80.5 70.5,80.5C 70.5,69.5 70.5,58.5 70.5,47.5C 65.1563,47.666 59.8229,47.4994 54.5,47C 63.7023,37.965 72.7023,28.7984 81.5,19.5 Z"/></g>
<g><path style="opacity:1" fill="#fefffe" d="M -0.5,131.5 C 6.25968,171.928 29.593,196.928 69.5,206.5C 46.1667,206.5 22.8333,206.5 -0.5,206.5C -0.5,181.5 -0.5,156.5 -0.5,131.5 Z"/></g>
<g><path style="opacity:1" fill="#fefffe" d="M 165.5,133.5 C 165.5,157.833 165.5,182.167 165.5,206.5C 142.167,206.5 118.833,206.5 95.5,206.5C 104.002,204.388 112.336,201.554 120.5,198C 145.657,183.381 160.657,161.881 165.5,133.5 Z"/></g>
</svg>

<svg xmlns="http://www.w3.org/2000/svg" width="166" height="207" style="shape-rendering:geometricPrecision;text-rendering:geometricPrecision;image-rendering:optimizeQuality;fill-rule:evenodd;clip-rule:evenodd"><path style="opacity:1" d="M-.5-.5h166v134c-4.843 28.381-19.843 49.881-45 64.5a157.946 157.946 0 0 1-25 8.5h-26c-39.907-9.572-63.24-34.572-70-75V-.5z"/><path style="opacity:1" fill="#00612a" d="M3.5 3.5h158c.167 44.335 0 88.668-.5 133-6.486 32.153-25.319 53.319-56.5 63.5-43.953 8.984-75.787-6.516-95.5-46.5a96.512 96.512 0 0 1-5-18c-.5-43.999-.667-87.999-.5-132z"/><path style="opacity:1" d="M81.5 17.5a5.576 5.576 0 0 1 3 1c9.536 9.37 18.87 18.87 28 28.5a3.944 3.944 0 0 1-1 2c-4.989.5-9.989.666-15 .5v29h29c-.166-5.344.001-10.677.5-16 .414-.457.914-.79 1.5-1a1294.87 1294.87 0 0 0 30 30.5l-29 29a4.934 4.934 0 0 1-3 .5v-16h-29v29a98.432 98.432 0 0 1 14 .5c1.658.725 2.158 1.892 1.5 3.5a387.704 387.704 0 0 1-29.5 28 1248.905 1248.905 0 0 1-30-29.5 3.942 3.942 0 0 1 1-2 112.97 112.97 0 0 1 15-.5v-29h-29v16a4.934 4.934 0 0 1-3-.5A512.842 512.842 0 0 0 9 94.5l-1.5-3a636.637 636.637 0 0 0 30-30c.586.21 1.086.543 1.5 1 .5 5.323.666 10.656.5 16h29v-29c-5.011.166-10.011 0-15-.5a3.943 3.943 0 0 1-1-2 1211.582 1211.582 0 0 1 29-29.5z"/><path style="opacity:1" fill="#fea700" d="M81.5 19.5a373.587 373.587 0 0 1 29 27.5c-5.323.5-10.656.666-16 .5v33h33c-.166-5.344.001-10.677.5-16 8.833 9.5 18 18.667 27.5 27.5a534.658 534.658 0 0 0-27.5 27.5 128.507 128.507 0 0 1-.5-16h-33v33c5.344-.166 10.677.001 16 .5a1088.195 1088.195 0 0 1-28 27.5 1087.872 1087.872 0 0 1-28-27.5 128.508 128.508 0 0 1 16-.5v-33h-33c.166 5.344 0 10.677-.5 16A534.858 534.858 0 0 0 9.5 92 534.9 534.9 0 0 0 37 64.5c.5 5.323.666 10.656.5 16h33v-33c-5.344.166-10.677 0-16-.5a1046.235 1046.235 0 0 0 27-27.5z"/><path style="opacity:1" fill="#fefffe" d="M-.5 131.5c6.76 40.428 30.093 65.428 70 75h-70v-75zM165.5 133.5v73h-70a157.946 157.946 0 0 0 25-8.5c25.157-14.619 40.157-36.119 45-64.5z"/></svg>
